X:1
T:Binorie
M:4/4
L:1/8
K:G
 D2| G2 G3/2 A/2 G2 D3/2 D/2| G2 G3/2 A/2 G2 z B| d3 B B2A-G| G2 A2 z2|\
 B2| c3/2 B/2 BA d2 d2| G/2 A3/2 G3/2 E/2 D2 C3/2 B,/2| D/2 D3/2 E3/2 D/2D/2 D3/2 B,3/2 D/2|\
 E2 G2 z2||
